X: 3264
T: Belar
R: jig
M: 6/8
K: Fdorian
B2c BAG|FGA G2E|B2G =A2F|d2c B3-|
BBc BAG|FGA G2E|B2G =A2F|cB=A B3:|
F2G AGA|FGA BAB|GAB A2B|c2d c3|
F2G AGA|FGA BAB|GAB d2c|B2A G3:|
B2B BcB|F2G A2A|B2B BcB|F2G A3|
G2A BAB|GAB cBc|ABc BAB|1 cBA G3:|2 cBA G3-||
G2E EDE|GBG E3|
|:efe a2a|e2e a2g|baf e2a|c6|
efe a2g|baf g3|_de_d g2f|agf e3|
efe a2a|e2e a2g|baf g2c'|g3- gde|
fga g2c'|gef g2f|e2_d c3|bgb c'3:|

